car-wrench.svg

<svg fill="currentColor" viewBox="0 0 24 24"><path d="M20.96 16.45c.01-.15.04-.3.04-.45v.5zM11 16c0 .71.15 1.39.42 2H6v1c0 .55-.45 1-1 1H4c-.55 0-1-.45-1-1v-8l2.08-6c.2-.58.76-1 1.42-1h11c.66 0 1.22.42 1.42 1L21 11v5c0-2.76-2.24-5-5-5s-5 2.24-5 5m-3-2.5c0-.83-.67-1.5-1.5-1.5S5 12.67 5 13.5 5.67 15 6.5 15 8 14.33 8 13.5M19 10l-1.5-4.5h-11L5 10zm3.87 11.19-4.11-4.11c.41-1.04.18-2.26-.68-3.11-.9-.91-2.25-1.09-3.34-.59l1.94 1.94-1.35 1.36-1.99-1.95c-.54 1.09-.29 2.44.59 3.35a2.91 2.91 0 0 0 3.12.68l4.11 4.1c.18.19.45.19.63 0l1.04-1.03c.22-.18.22-.5.04-.64"/></svg>

<svg  viewBox="0 0 24 24" fill="currentColor"><path  d="M20.96 16.45C20.97 16.3 21 16.15 21 16V16.5L20.96 16.45M11 16C11 16.71 11.15 17.39 11.42 18H6V19C6 19.55 5.55 20 5 20H4C3.45 20 3 19.55 3 19V11L5.08 5C5.28 4.42 5.84 4 6.5 4H17.5C18.16 4 18.72 4.42 18.92 5L21 11V16C21 13.24 18.76 11 16 11S11 13.24 11 16M8 13.5C8 12.67 7.33 12 6.5 12S5 12.67 5 13.5 5.67 15 6.5 15 8 14.33 8 13.5M19 10L17.5 5.5H6.5L5 10H19M22.87 21.19L18.76 17.08C19.17 16.04 18.94 14.82 18.08 13.97C17.18 13.06 15.83 12.88 14.74 13.38L16.68 15.32L15.33 16.68L13.34 14.73C12.8 15.82 13.05 17.17 13.93 18.08C14.79 18.94 16 19.16 17.05 18.76L21.16 22.86C21.34 23.05 21.61 23.05 21.79 22.86L22.83 21.83C23.05 21.65 23.05 21.33 22.87 21.19Z"/></svg>
